img/ico/telephone-ico-blue.svg

<svg width="24" height="24" viewBox="0 0 24 24" fill="none" xmlns="http://www.w3.org/2000/svg">
<path d="M4.48316 1.10696C4.10823 1.11829 3.77886 1.31615 3.50318 1.59182L3.04322 2.05104L8.02808 7.12673L8.75171 6.4031C9.18782 5.967 9.18781 5.24693 8.75171 4.81082L5.53199 1.59182C5.22013 1.27996 4.85807 1.09543 4.48316 1.10696ZM2.51148 2.58133L1.9834 3.10867C1.1193 3.97276 1.125 5.10339 1.125 5.62528C1.125 7.78474 1.98832 11.5181 7.23413 16.7639C12.48 22.0098 16.2141 22.8738 18.3735 22.8738C18.8955 22.8738 20.0261 22.8795 20.8901 22.0154L21.3677 21.5378L16.3828 16.4622L15.8599 16.9859C15.55 17.2958 15.3213 17.3328 15.0989 17.3066C14.8765 17.2806 14.6466 17.1519 14.4785 17.0217C13.5618 16.312 12.0776 15.2962 10.3901 13.6087C8.70263 11.9212 7.68676 10.4362 6.97705 9.51954C6.84694 9.35143 6.71829 9.12448 6.69214 8.9021C6.66593 8.67972 6.70617 8.44813 7.01587 8.13821L7.49707 7.65701L2.51148 2.58133ZM18.3911 14.9197C18.1023 14.9197 17.8138 15.029 17.5957 15.2471L16.9131 15.9305L21.8987 21.0068L22.407 20.4986C22.6827 20.2229 22.8796 19.8906 22.8911 19.5156C22.9025 19.1407 22.7188 18.7787 22.407 18.4668L19.1873 15.2471C18.9692 15.029 18.68 14.9197 18.3911 14.9197Z" fill="#DC3545"/>
</svg>

<svg width="24" height="24" viewBox="0 0 24 24" fill="currentcolor" xmlns="http://www.w3.org/2000/svg" class="svg-icon">
    <path
        d="M4.483 1.107c-.375.011-.704.21-.98.485l-.46.459 4.985 5.076.724-.724a1.13 1.13 0 0 0 0-1.592l-3.22-3.22c-.312-.311-.674-.496-1.049-.484M2.511 2.581l-.528.528c-.864.864-.858 1.994-.858 2.516 0 2.16.863 5.893 6.11 11.139 5.245 5.246 8.98 6.11 11.139 6.11.521 0 1.652.006 2.516-.859l.478-.477-4.985-5.076-.523.524c-.31.31-.539.347-.761.32-.223-.025-.452-.154-.62-.284-.917-.71-2.401-1.726-4.089-3.413-1.687-1.688-2.703-3.173-3.413-4.09-.13-.168-.259-.395-.285-.617s.014-.454.324-.764l.481-.481zm15.88 12.339c-.289 0-.577.109-.795.327l-.683.684 4.986 5.076.508-.508c.276-.276.473-.608.484-.983s-.172-.737-.484-1.05l-3.22-3.219a1.12 1.12 0 0 0-.796-.327" />
</svg>
